X:1894
T:Farewell to Peggy
O:england
B:Joyce, P. W.; "Old Irish Folk Music and Songs"
R:tune
L:1/8
M:C
K:F
de|f2 f2 g2 f/d/c/=B/|c>=B ((3GFE) F2 _Bc|d2 cB G2 G2| G6:|
de|f2 f2 d2 c2|B3 c d2 df|e2 dc de f2|g3 f edde|
f2 f2 g2 f/d/c/=B/|c>=B ((3GFE) F2 _Bc|d2 cB G2 G2|G6:|


